Base/images/board/sp_check.svg

<?xml version="1.0" encoding="utf-8"?>
<!-- Generator: Adobe Illustrator 26.0.1, SVG Export Plug-In . SVG Version: 6.00 Build 0)  -->
<svg version="1.1" id="레이어_1" xmlns="http://www.w3.org/2000/svg" xmlns:xlink="http://www.w3.org/1999/xlink" x="0px"
	 y="0px" viewBox="0 0 16 48" style="enable-background:new 0 0 16 48;" xml:space="preserve">
<style type="text/css">
	.st0{fill:#FFFFFF;}
	.st1{fill:#000111;}
	.st2{fill:#C1C1C1;}
	.st3{fill:#E8E8E8;}
	.st4{fill:#CECECE;}
	.st5{fill-rule:evenodd;clip-rule:evenodd;fill:#000111;}
</style>
<g id="레이어_2_00000121968099650510970490000016567911092239027600_">
	<g id="레이어_1-2">
		<rect x="0.7" y="16.8" class="st0" width="14.4" height="14.4"/>
		<path class="st1" d="M14,1c0.6,0,1,0.4,1,1v12c0,0.6-0.4,1-1,1H2c-0.6,0-1-0.4-1-1V2c0-0.6,0.4-1,1-1H14 M14,0H2C0.9,0,0,0.9,0,2
			v12c0,1.1,0.9,2,2,2h12c1.1,0,2-0.9,2-2V2C16,0.9,15.1,0,14,0z"/>
		<path class="st2" d="M14,17c0.6,0,1,0.4,1,1v12c0,0.6-0.4,1-1,1H2c-0.6,0-1-0.4-1-1V18c0-0.6,0.4-1,1-1H14 M14,16H2
			c-1.1,0-2,0.9-2,2v12c0,1.1,0.9,2,2,2h12c1.1,0,2-0.9,2-2V18C16,16.9,15.1,16,14,16z"/>
		<path class="st3" d="M2,32.5h12c0.8,0,1.5,0.7,1.5,1.5v12c0,0.8-0.7,1.5-1.5,1.5H2c-0.8,0-1.5-0.7-1.5-1.5V34
			C0.5,33.2,1.2,32.5,2,32.5z"/>
		<path class="st4" d="M14,33c0.6,0,1,0.4,1,1v12c0,0.6-0.4,1-1,1H2c-0.6,0-1-0.4-1-1V34c0-0.6,0.4-1,1-1H14 M14,32H2
			c-1.1,0-2,0.9-2,2v12c0,1.1,0.9,2,2,2h12c1.1,0,2-0.9,2-2V34C16,32.9,15.1,32,14,32z"/>
		<polygon class="st5" points="12.7,5.9 6.7,11.9 3.3,8.4 5.1,6.7 6.7,8.3 10.9,4.1 		"/>
	</g>
</g>
</svg>

<svg xmlns="http://www.w3.org/2000/svg" viewBox="0 0 16 48"><defs><style>.cls-1,.cls-5{fill:#000111;}.cls-2{fill:#c1c1c1;}.cls-3{fill:#e8e8e8;}.cls-4{fill:#cecece;}.cls-5{fill-rule:evenodd;}</style></defs><g id="레이어_2" data-name="레이어 2"><g id="레이어_1-2" data-name="레이어 1"><path class="cls-1" d="M14,1a1,1,0,0,1,1,1V14a1,1,0,0,1-1,1H2a1,1,0,0,1-1-1V2A1,1,0,0,1,2,1H14m0-1H2A2,2,0,0,0,0,2V14a2,2,0,0,0,2,2H14a2,2,0,0,0,2-2V2a2,2,0,0,0-2-2Z"/><path class="cls-2" d="M14,17a1,1,0,0,1,1,1V30a1,1,0,0,1-1,1H2a1,1,0,0,1-1-1V18a1,1,0,0,1,1-1H14m0-1H2a2,2,0,0,0-2,2V30a2,2,0,0,0,2,2H14a2,2,0,0,0,2-2V18a2,2,0,0,0-2-2Z"/><rect class="cls-3" x="0.5" y="32.5" width="15" height="15" rx="1.5"/><path class="cls-4" d="M14,33a1,1,0,0,1,1,1V46a1,1,0,0,1-1,1H2a1,1,0,0,1-1-1V34a1,1,0,0,1,1-1H14m0-1H2a2,2,0,0,0-2,2V46a2,2,0,0,0,2,2H14a2,2,0,0,0,2-2V34a2,2,0,0,0-2-2Z"/><polygon class="cls-5" points="12.69 5.92 6.73 11.88 3.31 8.45 5.1 6.66 6.73 8.29 10.9 4.13 12.69 5.92"/></g></g></svg>
